!!!!SEGMENT: pl-cz--iii-573--005_rygall-ignacy--rorate-caeli-super-bientium.krn
!!!cenid: 18xx:1035
!!!COM: Rygall, Ignacy
!!!COM-rismID: pe30110281
!!!CDT: <1750->1799
!!!CNT:
!!!OPR: Rorate caeli
!!!OTL: Super bientium
!!!OMV: 005
!!!PDT:
!!!AGN: Sacred
!!!SMS-siglum: PL-CZ
!!!SMS-shelfmark: III-573
!!!SMS-shelfwork: 001-005 M
!!!SMS-variant:
!!!SMS-altvar:
!!!NIFC-rismSourceID: 300001133
!!!NIFC-rismChildID: 300001133
!!!NIFC-islandoraID: pl-cz:39252
!!!URL-pdf-islandora: https://repozytorium.nifc.pl/islandora/object/pl-cz%3A39252/datastream/PDF/view
!!!URL-scan: https://polish.musicsources.pl/pl/lokalizacje/galeria/rekopisy/6955/1 @EN{Scan on Polish Music Sources Website} @PL{Skany w portalu Dziedzictwo Muzyki Polskiej w otwartym dostępie}
!!!ONB-nifc: UWAGA: części Rorate caeli: Intonatio, Benedixisti Domine, Mittit ad virginem, Zdrowaś bądź Maria, Superbientium, Maryja wielebna, Qui nobis tribuat, Łaskiś pełna Pańskiej
!!!AIN: 1 alto 1 bass 2 cor 2 oboe 1 organ 1 soprn 1 tenor 1 timpa 2 viola 3 violn
!!!key: e
**kern	**dynam	**kern	**kern	**kern	**kern	**kern	**kern	**text	**mod-text	**kern	**text	**mod-text	**kern	**text	**mod-text	**kern	**text	**mod-text	**kern	**kern	**kern	**kern	**kern
*	*	*group4	*group4	*group4	*group4	*group4	*group3	*	*	*group3	*	*	*group3	*	*	*group3	*	*	*	*group2	*group2	*group1	*group1
*part15	*part15	*part14	*part13	*part12	*part11	*part10	*part9	*part9	*part9	*part8	*part8	*part8	*part7	*part7	*part7	*part6	*part6	*part6	*part5	*part4	*part3	*part2	*part1
*staff15	*	*staff14	*staff13	*staff12	*staff11	*staff10	*staff9	*staff9	*staff9	*staff8	*staff8	*staff8	*staff7	*staff7	*staff7	*staff6	*staff6	*staff6	*staff5	*staff4	*staff3	*staff2	*staff1
*I"Organo	*	*I"Viola 2da.	*I"Alto Viola Prima.	*I"Violine Groſso	*I"Violino Secondo.	*I"Violino Primo	*I"Baſso	*	*	*I"Tenore	*	*	*I"Alto	*	*	*I"Sopran	*	*	*I"Tympano in D.A.	*I"Corno IIdo in G	*I"Corno 1mo in G	*I"Oboe IIdo	*I"Oboe Imo
*	*	*mI"Viola II	*mI"Viola I	*mI"Violino Grosso	*mI"Violino II	*mI"Violino I	*mI"Basso	*	*	*	*	*	*	*	*	*mI"Soprano	*	*	*mI"Timpani in D A	*mI"Corno II in G	*mI"Corno I in G	*mI"Oboe II	*mI"Oboe I
*I'org	*	*I'vla 2	*I'a-vla 1	*I'vl grosso	*I'vl 2	*I'vl 1	*I'B	*	*	*I'T	*	*	*I'A	*	*	*I'S	*	*	*I'timp	*I'cor 2 in G	*I'cor 1 in G	*I'ob 2	*I'ob 1
*Iorgan	*	*Iviola	*Iviola	*Ivioln	*Ivioln	*Ivioln	*Ibass	*	*	*Itenor	*	*	*Ialto	*	*	*Isoprn	*	*	*Itimpa	*Icor	*Icor	*Ioboe	*Ioboe
*ICklav	*	*ICstr	*ICstr	*ICstr	*ICstr	*ICstr	*ICvox	*	*	*ICvox	*	*	*ICvox	*	*	*ICvox	*	*	*ICidio	*ICbras	*ICbras	*ICww	*ICww
*IGcont	*	*	*	*	*	*	*IGcoro	*	*	*IGcoro	*	*	*IGcoro	*	*	*IGcoro	*	*	*	*	*	*	*
*	*	*	*	*tacet	*	*	*	*	*	*	*	*	*	*	*	*	*	*	*tacet	*	*	*	*
*clefF4	*	*clefC3	*clefC3	*clefF4	*clefG2	*clefG2	*clefF4	*	*	*clefC4	*	*	*clefC3	*	*	*clefC1	*	*	*clefF4	*clefG2	*clefG2	*clefG2	*clefG2
*	*	*	*	*	*	*	*	*	*	*mclefGv2	*	*	*mclefG2	*	*	*mclefG2	*	*	*	*	*	*	*
*	*	*	*	*	*	*	*	*	*	*	*	*	*	*	*	*	*	*	*	*ITrd3c5	*ITrd3c5	*	*
*k[f#]	*	*k[f#]	*k[f#]	*k[f#]	*k[f#]	*k[f#]	*k[f#]	*	*	*k[f#]	*	*	*k[f#]	*	*	*k[f#]	*	*	*k[f#]	*k[f#]	*k[f#]	*k[f#]	*k[f#]
*e:	*	*e:	*e:	*e:	*e:	*e:	*e:	*	*	*e:	*	*	*e:	*	*	*e:	*	*	*e:	*e:	*e:	*e:	*e:
*M3/4	*	*M3/4	*M3/4	*M3/4	*M3/4	*M3/4	*M3/4	*	*	*M3/4	*	*	*M3/4	*	*	*M3/4	*	*	*M3/4	*M3/4	*M3/4	*M3/4	*M3/4
=1	=1	=1	=1	=1	=1	=1	=1	=1	=1	=1	=1	=1	=1	=1	=1	=1	=1	=1	=1	=1	=1	=1	=1
*	*	*	*	*	*	*	*	*	*	*	*	*	*	*	*	*	*	*	*	*all\right	*all\right	*2\right	*2\right
!	!	!	!	!LO:TX:t=P:problem=instrument gra tylko w części Benedictisti	!	!	!	!	!	!	!	!	!	!	!	!	!	!	!LO:TX:i:t=Mittet ad Virginem Tacet	!	!	!	!
!LO:TX:a:t=Solo	!LO:DY:b:t=pia	!LO:TX:a:t=4:mod=	!LO:TX:a:t=4:mod=	!	!	!	!	!	!	!	!	!	!	!	!	!	!	!	!	!LO:TX:a:t=4:mod=	!LO:TX:a:t=4:mod=	!	!
4E\	p	0.r	0.r	2.ryy	4g/	4ee\	4E\	Su-	Su-	4B\	Su-	Su-	4g\	Su-	Su-	4b\	Su-	Su-	2.ryy	0.r	0.r	2ee\	2gg\
4G\	.	.	.	.	4g/	4ee\	4G\	-per-	-per-	4G\	-per-	-per-	4g\	-per-	-per-	4ee\	-per-	-per-	.	.	.	.	.
!	!	!	!	!	!	!	!	!	!	!LO:SIC:v:s=4A\	!	!	!	!	!	!	!	!	!	!	!	!	!
4A\	.	.	.	.	4g/	4ee\	4A\	-bi-	-bi-	4B\	-bi-	-bi-	4g\	-bi-	-bi-	4ee\	-bi-	-bi-	.	.	.	4g/	4ee\
=2	=2	=2	=2	=2	=2	=2	=2	=2	=2	=2	=2	=2	=2	=2	=2	=2	=2	=2	=2	=2	=2	=2	=2
!	!	!	!	!	!	!	!LO:SIC:s=8B\	!	!	!LO:SIC:s=	!	!	!LO:SIC:s=8g\	!	!	!LO:SIC:s=8ee\	!	!	!	!	!	!	!
4B\	.	.	.	2.ryy	8g/L	8ee\L	8B\L	-en-	-en-	8B\L	-en-	-en-	8g\L	-en-	-en-	8ee\L	-en-	-en-	2.ryy	.	.	4g/	4ee\
!	!	!	!	!	!	!	!LO:SIC:s=8B\	!	!	!LO:SIC:s=8A\	!	!	!LO:SIC:s=8f#\	!	!	!LO:SIC:s=8dd#X\	!	!	!	!	!	!	!
.	.	.	.	.	8f#/J	8dd#X\J	8B\J	-ti-	-ti-	8A\J	-ti-	-ti-	8f#\J	-ti-	-ti-	8dd#X\J	-ti-	-ti-	.	.	.	.	.
4F#\	.	.	.	.	4f#/	4dd#\	4BB/	-um	-um	4A\	-um	-um	4f#\	-um	-um	4dd#\	-um	-um	.	.	.	4f#/	4dd#X\
4BB\	.	.	.	.	4g/	4ee\	4r	.	.	4r	.	.	4r	.	.	4r	.	.	.	.	.	4b/	4ee\
=3	=3	=3	=3	=3	=3	=3	=3	=3	=3	=3	=3	=3	=3	=3	=3	=3	=3	=3	=3	=3	=3	=3	=3
!	!	!	!	!	!	!	!	!LO:MO:mod=te-	!LO:MO:mod=te-	!	!LO:MO:mod=te-	!LO:MO:mod=te-	!	!LO:MO:mod=te-	!LO:MO:mod=te-	!	!LO:MO:mod=te-	!	!	!	!	!	!
4BB/	.	.	.	2.ryy	8a/L	8ff#\L	4B\	ter-	ter-	4B\	ter-	ter-	4a\	ter-	ter-	4ff#\	ter-	ter-	2.ryy	.	.	2a/	2ff#\
.	.	.	.	.	8f#/	8dd#X\	.	.	.	.	.	.	.	.	.	.	.	.	.	.	.	.	.
!	!	!	!	!	!	!	!	!LO:MO:mod=-rat	!LO:MO:mod=-rat	!	!LO:MO:mod=-rat	!LO:MO:mod=-rat	!	!LO:MO:mod=-rat	!LO:MO:mod=-rat	!	!LO:MO:mod=-rat	!LO:MO:mod=-rat	!	!	!	!	!
4D#X/	.	.	.	.	8ff#/	8aa\	4d#X\	-ret	-ret	4B\	-ret	-ret	4f#\	-ret	-ret	4a\	-ret	-ret	.	.	.	.	.
.	.	.	.	.	8dd#X/	8ff#\	.	.	.	.	.	.	.	.	.	.	.	.	.	.	.	.	.
4BB/	.	.	.	.	8b/	8dd#\	4B\	fas-	fas-	4B\	fas-	fas-	4f#\	fas-	fas-	4a\	fas-	fas-	.	.	.	4a/	4ff#\
.	.	.	.	.	8g/J	8b\J	.	.	.	.	.	.	.	.	.	.	.	.	.	.	.	.	.
=4	=4	=4	=4	=4	=4	=4	=4	=4	=4	=4	=4	=4	=4	=4	=4	=4	=4	=4	=4	=4	=4	=4	=4
!	!	!	!	!	!	!	!LO:SIC:s=8e\	!	!	!LO:SIC:s=8B\	!	!	!LO:SIC:s=8f#\	!	!	!LO:SIC:s=8a\	!	!	!	!	!	!	!
4E\	.	.	.	2.ryy	8f#/L	8a/L	8e\L	-ti-	-ti-	8B\L	-ti-	-ti-	8f#\L	-ti-	-ti-	8a\L	-ti-	-ti-	2.ryy	.	.	8a/L	8ff#\L
!	!	!	!	!	!	!	!LO:SIC:s=8E\	!	!	!LO:SIC:s=8B\	!	!	!LO:SIC:s=8e\	!	!	!LO:SIC:s=8g\	!	!	!	!	!	!	!
.	.	.	.	.	8e/J	8g/J	8E\J	-gi-	-gi-	8B\J	-gi-	-gi-	8e\J	-gi-	-gi-	8g\J	-gi-	-gi-	.	.	.	8g/J	8ee\J
4BB\	.	.	.	.	4e/	4g/	4E\	-a	-a	4B\	-a	-a	4e\	-a	-a	4g\	-a	-a	.	.	.	4g/	4ee\
4EE/	.	.	.	.	4r	4r	4r	.	.	4r	.	.	4r	.	.	4r	.	.	.	.	.	4r	4r
!	!	!	!	!	!	!	!LO:LB:g=original	!	!	!	!	!	!	!	!	!	!	!	!	!	!	!	!LO:LB:g=original
=5	=5	=5	=5	=5	=5	=5	=5	=5	=5	=5	=5	=5	=5	=5	=5	=5	=5	=5	=5	=5	=5	=5	=5
*	*	*2\right	*2\right	*	*	*2\right	*	*	*	*2\right	*	*	*2\right	*	*	*	*	*	*	*2\right	*2\right	*	*
4AA/	.	2a\	2cc\	2.ryy	2e/	2cc\	4r	.	.	2A\	col-	col-	2e\	col-	col-	4cc\	col-	col-	2.ryy	2a\	2cc\	1.r	1.r
!	!	!	!	!	!	!	!	!	!LO:MO:mod=su-	!	!	!	!	!	!	!	!	!	!	!	!	!	!
4A\	.	.	.	.	.	.	4A\	Sub-	Sub-	.	.	.	.	.	.	4cc\	-la	-la	.	.	.	.	.
!	!	!	!	!	!	!	!	!	!	!	!	!	!	!	!	!	!	!	!	!	!LO:SIC:v:s=4cc\	!	!
4F#\	.	4a\	4cc\	.	4e-X/	4cc\	4F#X\	.	.	4A\	-la	-la	4e-X\	-la	-la	4cc\	Sub-	su-	.	4a\	4b\	.	.
!	!	!	!LO:LB:g=original	!	!	!	!	!	!	!	!	!	!LO:LB:g=original	!	!	!LO:LB:g=original	!	!	!	!	!	!	!
=6	=6	=6	=6	=6	=6	=6	=6	=6	=6	=6	=6	=6	=6	=6	=6	=6	=6	=6	=6	=6	=6	=6	=6
!	!	!	!	!	!	!	!	!	!LO:MO:mod=-bli-	!	!	!	!	!	!	!	!	!	!	!	!	!	!
4G\	.	4g\	4b\	2.ryy	8a/L	8cc\L	4G\	-li-	-li-	4G/	Sub-	su-	4d\	Su-	su-	4b\	-bli-	-bli-	2.ryy	4g\	4b\	.	.
.	.	.	.	.	8g/	8b\	.	.	.	.	.	.	.	.	.	.	.	.	.	.	.	.	.
!	!	!	!	!	!	!	!	!	!	!LO:SIC:s=8c/	!	!	!	!	!	!	!	!	!	!	!	!	!
4A\	.	4a\	4cc\	.	8cc/	8ee\	4A\	-mi-	-mi-	8c/L	-li-	-bli-	8cc\	-bli-	-bli-	8ee\L	-mi-	-mi-	.	4a\	4cc\	.	.
!	!	!	!	!	!	!	!	!	!	!LO:SIC:s=8B/	!	!	!	!	!	!	!	!	!	!	!	!	!
.	.	.	.	.	8b/J	8dd\	.	.	.	8B/J	-mi-	-mi-	8b\	-mi-	-mi-	8ddn\J	.	.	.	.	.	.	.
!	!	!	!	!	!LO:N:vis=4	!	!	!	!	!	!	!	!LO:MO:mod=4b\	!	!	!	!	!	!	!	!	!	!
4B\	.	4b\	4dd\	.	8b/	8cc\	4B\	-um	-um	4B/	-um	-um	8b\	-um	-um	4dd\	-um	-um	.	4b\	4dd\	.	.
!	!	!	!	!	!LO:N:vis=4	!	!	!	!	!	!	!	!LO:MO:mod=.	!	!	!	!	!	!	!	!	!	!
.	.	.	.	.	8r	8gg\J	.	.	.	.	.	.	8b\	cal-	.	.	.	.	.	.	.	.	.
!	!	!LO:LB:g=original	!	!	!LO:LB:g=original	!LO:LB:g=original	!	!	!	!	!	!	!	!	!	!	!	!	!	!	!	!	!
=7	=7	=7	=7	=7	=7	=7	=7	=7	=7	=7	=7	=7	=7	=7	=7	=7	=7	=7	=7	=7	=7	=7	=7
!	!	!	!	!	!	!	!	!LO:MO:mod=cal-	!	!	!	!	!	!LO:MO:mod=-cet	!	!	!	!	!	!	!	!	!
4c\	.	4a\	4cc\	2.ryy	8cc/L	8ee\L	4c\	col-	cal-	4e\	fas-	vi	8cc\	-cel	cal-	8ee\	cal-	cal-	2.ryy	4a\	4cc\	8b\L	8ee\L
!	!	!	!	!	!	!	!	!	!	!	!	!	!	!	!	!	!LO:MO:mod=-cet	!	!	!	!	!	!
.	.	.	.	.	8a/J	8cc\J	.	.	.	.	.	.	16b\	.	-cet	16ddn\	-cel	-cet	.	.	.	8b\J	8aa\J
.	.	.	.	.	.	.	.	.	.	.	.	.	16a\	fas-	vi	16cc\	vi	vi	.	.	.	.	.
!	!	!	!	!	!	!	!	!LO:MO:mod=-cet	!	!	!	!	!	!	!	!	!	!	!	!	!	!	!
4d\	.	4g\	4b\	.	4g/	4b\	4d\	-let	-cet	4d\	-ti-	pro-	4g\	-ti-	pro-	4b\	pro-	pro-	.	4g\	4b\	4b\	4gg\
!	!	!	!	!	!	!	!	!	!	!	!	!	!	!	!	!	!LO:MO:mod=-pri-	!	!	!	!	!	!
4D\	.	4d\	4a\	.	4f#/	4aT\	4D\	fas-	vi	4d\	-gi-	-pri-	4d\	-gi-	-pri-	4a\	-pti-	-pri-	.	4d\	4a\	4a\	4ff#\
=8	=8	=8	=8	=8	=8	=8	=8	=8	=8	=8	=8	=8	=8	=8	=8	=8	=8	=8	=8	=8	=8	=8	=8
*	*	*	*	*	*	*	*	*	*	*	*	*	*	*	*	*2\right	*	*	*	*	*	*	*
4G\	.	4B/	4g\	2.ryy	2B/	2g\	16G\	-ti-	pro-	2d\	-a	-a	2B\	-a	-a	2g\	-a	-a	2.ryy	4B/	4g\	2b\	2gg\
.	.	.	.	.	.	.	16GG/	-gi-	-pri-	.	.	.	.	.	.	.	.	.	.	.	.	.	.
.	.	.	.	.	.	.	4GG/	-a	-a	.	.	.	.	.	.	.	.	.	.	.	.	.	.
4D\	.	4d/	4g\	.	.	.	.	.	.	.	.	.	.	.	.	.	.	.	.	4d/	4g\	.	.
.	.	.	.	.	.	.	4.r	.	.	.	.	.	.	.	.	.	.	.	.	.	.	.	.
4GG/	.	4B/	4g\	.	4r	4r	.	.	.	4r	.	.	4r	.	.	4r	.	.	.	4B/	4g\	4r	4r
!LO:LB:g=original	!	!	!	!	!	!	!	!	!	!LO:LB:g=original	!	!	!	!	!	!	!	!	!	!	!	!	!
=9	=9	=9	=9	=9	=9	=9	=9	=9	=9	=9	=9	=9	=9	=9	=9	=9	=9	=9	=9	=9	=9	=9	=9
!	!	!	!LO:TX:a:t=8:mod=	!	!	!	!	!	!	!	!	!	!	!	!	!	!	!	!	!LO:TX:a:t=8:mod=	!LO:TX:a:t=8:mod=	!	!
4E\	.	0.r	0.r	2.ryy	4g#X/	4b\	4E\	col-	col-	4B\	col-	col-	4g#X\	col-	col-	4b\	col-	col-	2.ryy	0.r	0.r	0.r	0.r
4F#\	.	.	.	.	4b/	4ee\	4F#\	-la	-la	4B\	-la	-la	4g#\	-la	-la	4ee\	-la	-la	.	.	.	.	.
4G#X\	.	.	.	.	4a/	4dd\	4G#X\	Sub-	su-	4B\	Sub-	su-	4e\	Sub-	su-	4dd\	Sub-	su-	.	.	.	.	.
=10	=10	=10	=10	=10	=10	=10	=10	=10	=10	=10	=10	=10	=10	=10	=10	=10	=10	=10	=10	=10	=10	=10	=10
!	!	!	!	!	!	!	!	!	!	!	!	!	!	!	!	!LO:MO:mod=!null:null	!	!	!	!	!	!	!
!	!	!	!	!	!	!	!	!	!	!LO:SIC:s=8B\	!	!	!LO:SIC:s=8b\	!	!	!LO:N:vis=16	!	!	!	!	!	!	!
4A\	.	.	.	2.ryy	8a/L	8cc\L	4A\	-li-	-bli-	8B\L	-li-	-bli-	8b\L	-li-	-bli-	8dd\	-li-	-bli-	2.ryy	.	.	.	.
!	!	!	!	!	!	!	!	!	!	!	!	!	!	!	!	!LO:MO:mod=!null:null	!	!	!	!	!	!	!
!	!	!	!	!	!	!	!	!	!	!LO:SIC:s=8A\	!	!	!LO:SIC:s=8a\	!	!	!LO:N:vis=16	!	!	!	!	!	!	!
.	.	.	.	.	8cc/	8aa\	.	.	.	8A\J	-mi-	-mi-	8a\J	-mi-	-mi-	8cc\	-mi-	-mi-	.	.	.	.	.
4B\	.	.	.	.	8b/	8gg#X\	4B\	-mi-	-mi-	4A\	-um	-um	4a\	-um	-um	4cc\	-um	-um	.	.	.	.	.
.	.	.	.	.	8dd/J	8bb\J	.	.	.	.	.	.	.	.	.	.	.	.	.	.	.	.	.
4c\	.	.	.	.	4cc/	4aa\	4c\	-um	-um	4r	.	.	4r	.	.	4r	.	.	.	.	.	.	.
=11	=11	=11	=11	=11	=11	=11	=11	=11	=11	=11	=11	=11	=11	=11	=11	=11	=11	=11	=11	=11	=11	=11	=11
4F#\	.	.	.	2.ryy	4a#X/	4cc#X\	4F#\	cal-	cal-	4c#X\	cal-	cal-	4a#X\	cal-	cal-	4cc#X\	cal-	cal-	2.ryy	.	.	.	.
!	!	!	!	!	!	!	!	!LO:MO:mod=-cet	!	!	!LO:MO:mod=-cet	!	!	!LO:MO:mod=-cet	!	!	!LO:MO:mod=-cet	!	!	!	!	!	!
4G#X\	.	.	.	.	4cc#X/	4ff#\	4G#X\	-cel	-cet	4c#\	-cel	-cet	4a#\	-cel	-cet	4ff#\	-cel	-cet	.	.	.	.	.
4A#X\	.	.	.	.	4cc#/	4ee\	4A#X\	vi-	vi	4c#\	vi-	vi	4f#\	vi-	vi	4ee\	vi-	vi	.	.	.	.	.
=12	=12	=12	=12	=12	=12	=12	=12	=12	=12	=12	=12	=12	=12	=12	=12	=12	=12	=12	=12	=12	=12	=12	=12
!	!	!	!	!	!	!	!	!	!	!	!	!	!	!	!	!LO:MO:mod=!null:null	!	!	!	!	!	!	!
!	!	!	!	!	!	!	!	!	!	!LO:SIC:s=8c\	!	!	!	!	!	!LO:N:vis=16	!	!	!	!	!	!	!
4B\	.	.	.	2.ryy	8b\L	8dd#X\L	4B\	-pro-	pro-	8c\L	-pro-	pro-	8cc#X\	-pro-	pro-	8ee\	-pro-	pro-	2.ryy	.	.	.	.
!	!	!	!	!	!	!	!	!	!	!	!	!	!	!	!	!LO:MO:mod=!null:null	!	!	!	!	!	!	!
!	!	!	!	!	!	!	!	!	!	!LO:SIC:s=8B\	!	!	!	!	!	!LO:N:vis=16	!	!	!	!	!	!	!
.	.	.	.	.	8dd#X\	8bb\	.	.	.	8B\J	-pti-	-pti-	8b\	-pti-	-pti-	8dd#X\	-pti-	-pti-	.	.	.	.	.
4c#X\	.	.	.	.	8cc#X\	8aa#X\	4c#X\	-pti-	-pti-	4B\	-a	-a	4b\	-a	-a	4dd#\	-a	-a	.	.	.	.	.
.	.	.	.	.	8ee\J	8ccc#X\J	.	.	.	.	.	.	.	.	.	.	.	.	.	.	.	.	.
4d#X\	.	.	.	.	4dd#\	4bb\	4d#X\	-a	-a	4r	.	.	4r	.	.	4r	.	.	.	.	.	.	.
!	!	!	!	!	!	!	!LO:LB:g=original	!	!	!	!	!	!LO:LB:g=original	!	!	!LO:LB:g=original	!	!	!	!	!	!	!
=13	=13	=13	=13	=13	=13	=13	=13	=13	=13	=13	=13	=13	=13	=13	=13	=13	=13	=13	=13	=13	=13	=13	=13
4e\	.	0.r	0.r	2.ryy	4g/	4ee\	4e\	po-	po-	4e\	po-	po-	4g\	po-	po-	4ee\	po-	po-	2.ryy	0.r	0.r	4g/	4ee\
4E\	.	.	.	.	4g/	4b\	4E\	-tens	-tens	4e\	-tens	-tens	4g\	-tens	-tens	4b\	-tens	-tens	.	.	.	4g/	4b\
4r	.	.	.	.	4a/	4cc\	4E\	in	in	4e\	in	in	4a\	in	in	4cc\	in	in	.	.	.	4a/	4cc\
=14	=14	=14	=14	=14	=14	=14	=14	=14	=14	=14	=14	=14	=14	=14	=14	=14	=14	=14	=14	=14	=14	=14	=14
4e\	.	.	.	2.ryy	4.g/	4.b\	4E\	prae-	prae-	4.e\	prae-	prae-	4.g\	prae-	prae-	4.b\	prae-	prae-	2.ryy	.	.	4.g/	4.b\
4B\	.	.	.	.	.	.	4BB\	-li-	-li-	.	.	.	.	.	.	.	.	.	.	.	.	.	.
!	!	!	!	!	!	!	!	!	!	!	!	!	!	!	!	!	!	!	!	!	!	!LO:SIC:s=8f#/	!
.	.	.	.	.	8f#/	8a\	.	.	.	8d#X\	-li-	-li-	8f#\	-li-	-li-	8a\	-li-	-li-	.	.	.	8f#/L	8a\
!	!	!	!	!	!	!	!	!	!	!	!	!	!	!	!	!	!	!	!	!	!	!LO:MO:mod=!null:null	!
!	!	!	!	!	!	!	!	!	!	!	!	!	!	!	!	!	!	!	!	!	!	!LO:N:vis=8	!
!	!	!	!	!	!	!	!	!	!	!	!	!	!	!	!	!	!	!	!	!	!	!LO:SIC:s=4e/	!
4E\	.	.	.	.	4e/	4g\	4E\	-o	-o	4e\	-o	-o	4e\	-o	-o	4g\	-o	-o	.	.	.	4e/J	4g\
!	!	!	!	!	!	!	!	!	!	!	!	!	!	!	!	!	!	!	!	!	!	!LO:LB:g=original	!
=15	=15	=15	=15	=15	=15	=15	=15	=15	=15	=15	=15	=15	=15	=15	=15	=15	=15	=15	=15	=15	=15	=15	=15
4A\	.	.	.	2.ryy	8a/L	8cc\L	4A\	in	in	4c\	in	in	8a\L	in	in	8cc\L	in	in	2.ryy	.	.	4a/	4cc\
.	.	.	.	.	8f#/J	8a\J	.	.	.	.	.	.	8f#\J	.	.	8a\J	.	.	.	.	.	.	.
4B\	.	.	.	.	4e/	4g/	4B\	prae-	prae-	4B\	prae-	prae-	4e\	prae-	prae-	4g\	prae-	prae-	.	.	.	4g/	4b\
4BB/	.	.	.	.	4d#X/	4f#/	4BB/	-li-	-li-	4B\	-li-	-li-	4d#X\	-li-	-li-	4f#\	-li-	-li-	.	.	.	4f#/	4dd#X\
=16	=16	=16	=16	=16	=16	=16	=16	=16	=16	=16	=16	=16	=16	=16	=16	=16	=16	=16	=16	=16	=16	=16	=16
*	*	*	*	*	*	*	*2\right	*	*	*	*	*	*	*	*	*	*	*	*	*	*	*	*
4E\	.	.	.	2.ryy	2G/	2e/	2E\	-o	-o	2B\	-o	-o	2e\	-o	-o	2e/	-o	-o	2.ryy	.	.	4g/	4ee\
8D\L	.	.	.	.	.	.	.	.	.	.	.	.	.	.	.	.	.	.	.	.	.	4r	4r
8C\	.	.	.	.	.	.	.	.	.	.	.	.	.	.	.	.	.	.	.	.	.	.	.
!	!	!	!	!	!	!	!	!	!	!	!	!	!	!	!	!	!	!	!	!	!	!LO:TX:t=P:problem= 4a/ przeprawione na pauzę 4r:mod=	!
8BB\	.	.	.	.	4r	4r	4r	.	.	4r	.	.	4r	.	.	4r	.	.	.	.	.	4r	4r
8AA\J	.	.	.	.	.	.	.	.	.	.	.	.	.	.	.	.	.	.	.	.	.	.	.
==	==	==	==	==	==	==	==	==	==	==	==	==	==	==	==	==	==	==	==	==	==	==	==
*-	*-	*-	*-	*-	*-	*-	*-	*-	*-	*-	*-	*-	*-	*-	*-	*-	*-	*-	*-	*-	*-	*-	*-
!!!system-decoration: [(g1)][(g2)]<s5>[(g3)][(g4)]<s15>
!!!filter-modern: sic -sq | shed -e "s/LO:DY:(a|b|rj)/LO:dy:$1/L" | modori -m | autostem -r | tie -s
!!!ENC: Andrzej Gręziak
!!!END: 2021-06-28
!!!ENC: Marta Lawrence
!!!END: 2021-11-19
!!!ENC-modern: Marta Lawrence
!!!END-modern: 2022-06-13
!!!YEC: Copyright 2022 Narodowy Instytut Fryderyka Chopina (https://polishscores.org)
!!!YEM: License CC-BY-4.0 (https://creativecommons.org/licenses/by/4.0)
